tools/download-figma-icons/icons/outlined-medium/smart-lightning.svg

<svg width="24" height="24" viewBox="0 0 24 24" fill="none" xmlns="http://www.w3.org/2000/svg">
<path fill-rule="evenodd" clip-rule="evenodd" d="M7.4625 20.25H11.9625V19.5H7.4625V20.25ZM11.2125 22.5H8.21251C7.74826 22.5 7.50376 22.1355 7.47451 21.75H11.9505C11.9205 22.1355 11.67 22.5 11.2125 22.5ZM9.75 1.5C11.55 1.5 13.2525 2.205 14.5275 3.48C14.9775 3.93 15.3525 4.4325 15.6525 4.9725C15.87 4.44 16.1475 3.9375 16.47 3.4575C16.2075 3.09 15.9075 2.745 15.585 2.4225C14.025 0.8625 11.955 0 9.75 0C7.545 0 5.475 0.8625 3.915 2.415C2.3625 3.9675 1.5 6.0375 1.5 8.235C1.5 11.2425 2.94 13.11 4.6725 15.0675C5.49 15.99 5.9625 16.665 5.9625 17.4V18.7327C5.9625 18.7357 5.96156 18.7386 5.96063 18.7414C5.95969 18.7442 5.95875 18.747 5.95875 18.75C5.95875 18.753 5.95969 18.7558 5.96063 18.7586C5.96156 18.7614 5.9625 18.7643 5.9625 18.7673V20.9827C5.9625 20.9857 5.96156 20.9886 5.96063 20.9914C5.95969 20.9942 5.95875 20.997 5.95875 21C5.95875 21.003 5.95969 21.0058 5.96063 21.0086C5.96156 21.0114 5.9625 21.0143 5.9625 21.0173V21.675C5.9625 22.98 6.945 24 8.2125 24H11.2125C12.4725 24 13.4625 22.98 13.4625 21.675V17.4C13.4625 16.7325 13.92 16.095 14.8275 15.0825C15.42 14.4075 15.9825 13.74 16.4625 13.035C16.14 12.555 15.87 12.0525 15.6525 11.52C15.1575 12.39 14.4825 13.2 13.7025 14.085C12.75 15.15 11.9625 16.14 11.9625 17.4V18H10.4588V9.3015L11.2088 8.56425L12.183 9.522C12.3285 9.666 12.519 9.73725 12.7088 9.73725C12.903 9.73725 13.0973 9.663 13.2435 9.51375C13.5345 9.21825 13.53 8.74275 13.2345 8.45325L11.7345 6.978C11.4435 6.69075 10.9748 6.69075 10.683 6.978L9.70875 7.93575L8.7345 6.978C8.4435 6.69075 7.97475 6.69075 7.683 6.978L6.183 8.45325C5.88825 8.74275 5.88375 9.21825 6.174 9.51375C6.4635 9.8085 6.93975 9.81225 7.2345 9.522L8.20875 8.56425L8.95875 9.3015V18H7.4625V17.4C7.4625 16.065 6.6375 15.03 5.7975 14.0775C4.1625 12.225 3 10.725 3 8.235C3 6.4425 3.705 4.7475 4.98 3.48C6.255 2.205 7.95 1.5 9.75 1.5ZM18 8.25C18 6.6225 18.7125 5.0925 20.0025 3.93C20.31 3.66 20.3325 3.18 20.055 2.8725C19.785 2.565 19.305 2.5425 18.9975 2.82C18.3 3.45 17.73 4.17 17.3175 4.95C16.785 5.97 16.5 7.0875 16.5 8.25C16.5 9.405 16.7775 10.5225 17.31 11.5425C17.7225 12.33 18.2925 13.05 18.9975 13.68C19.14 13.815 19.32 13.875 19.5 13.875C19.7025 13.875 19.9125 13.7925 20.055 13.6275C20.3325 13.32 20.31 12.84 20.0025 12.57C18.7125 11.4075 18 9.8775 18 8.25ZM22.2285 5.82825C21.4358 6.4845 21 7.344 21 8.25C21 9.156 21.4358 10.0155 22.2285 10.6718C22.5473 10.9365 22.5915 11.4097 22.3283 11.7285C22.179 11.9077 21.9653 12 21.7493 12C21.5805 12 21.4118 11.9438 21.2715 11.8282C20.1292 10.8818 19.5 9.6105 19.5 8.25C19.5 6.8895 20.1292 5.61825 21.2715 4.67175C21.5903 4.407 22.0627 4.45275 22.3283 4.7715C22.5915 5.09025 22.5473 5.5635 22.2285 5.82825Z" fill="black"/>
</svg>

<svg width="24" height="24" viewBox="0 0 24 24" fill="none" xmlns="http://www.w3.org/2000/svg"><path fill-rule="evenodd" clip-rule="evenodd" d="M7.463 20.25h4.5v-.75h-4.5v.75Zm3.75 2.25h-3c-.465 0-.71-.364-.738-.75h4.476c-.03.386-.281.75-.739.75ZM9.75 1.5c1.8 0 3.502.705 4.777 1.98.45.45.825.953 1.126 1.493a8.44 8.44 0 0 1 .817-1.515 8.273 8.273 0 0 0-.885-1.036A8.198 8.198 0 0 0 9.75 0a8.222 8.222 0 0 0-5.835 2.415A8.188 8.188 0 0 0 1.5 8.235c0 3.008 1.44 4.875 3.173 6.833.817.922 1.29 1.597 1.29 2.332v1.333l-.002.008a.027.027 0 0 0-.002.009c0 .003 0 .006.002.009l.002.008v2.216l-.002.008a.027.027 0 0 0-.002.009c0 .003 0 .006.002.009l.002.008v.658c0 1.305.982 2.325 2.25 2.325h3c1.26 0 2.25-1.02 2.25-2.325V17.4c0-.667.457-1.305 1.365-2.317.592-.675 1.155-1.343 1.634-2.048a8.405 8.405 0 0 1-.81-1.515c-.494.87-1.17 1.68-1.95 2.565-.952 1.065-1.74 2.055-1.74 3.315v.6H10.46V9.302l.75-.738.974.958a.745.745 0 0 0 .526.215.75.75 0 0 0 .526-1.284l-1.5-1.475a.75.75 0 0 0-1.052 0l-.974.958-.974-.958a.75.75 0 0 0-1.052 0l-1.5 1.475a.75.75 0 0 0 1.051 1.069l.975-.958.75.738V18H7.463v-.6c0-1.335-.825-2.37-1.665-3.322C4.162 12.225 3 10.725 3 8.235c0-1.792.705-3.487 1.98-4.755A6.707 6.707 0 0 1 9.75 1.5ZM18 8.25c0-1.628.712-3.157 2.003-4.32.307-.27.33-.75.052-1.058a.747.747 0 0 0-1.058-.052 7.804 7.804 0 0 0-1.68 2.13 7.094 7.094 0 0 0-.007 6.593 7.616 7.616 0 0 0 1.688 2.137.72.72 0 0 0 .502.195.736.736 0 0 0 .555-.248.747.747 0 0 0-.052-1.057C18.713 11.408 18 9.877 18 8.25Zm4.229-2.422C21.436 6.484 21 7.344 21 8.25c0 .906.436 1.765 1.229 2.422a.752.752 0 0 1-.48 1.328.748.748 0 0 1-.477-.172C20.128 10.882 19.5 9.611 19.5 8.25c0-1.36.63-2.632 1.771-3.578a.75.75 0 0 1 .957 1.156Z" fill="currentColor"/></svg>
